X:88
T: Als ich hungerig und dursterig sein (Band 1), S. 244
N: P0863
O: Lothringen
S: PINCK, Louis: Verklingende Weisen, Bd 1, Metz 1928]
R: Spott-, Zechlied]
M: 3/8
L: 1/16
K: G
 | D4G2 | G3GGG | G3AB2 | A4z2
B4c2 | B2A2G2 | A2G2F2 | G4z2
B4G2 | B4d2 | d2c2B2 | A4G2
A4G2 | A4A2 | B2A2B2 | D4D2
D2G2G2 | G4G2 | G2A2B2 | A4z2
B4c2 | B2A2G2 | A4F2 | G4z2
B4G2 | B4d2 | d2c2B2 | A4G2
A4G2 | A4A2 | B2A2B2 | D4D2
D2G2G2 | G4G2 | G2A2B2 | A4z2
B4c2 | B2A2G2 | A4F2 | G4z2

